X:11
T:Sei Gott ...
B:Frau Nachtigall (Straburg - 1928)
Z:<anamnese@laposte.net> -- http://anamnese.fr.st
N:p.23
M:3/4
L:1/4
Q:1/4=130
K:F
A | "Dm"A/>G/ F "Gm"G | "A7"F/>E/ "Bb"D "D"A | "Gm"B/ A/ G "C7"A |
"F"G F :| A | "F"c/ d/ cf | e/ d/ cA | "C"G/ F/ E "C7"G |
"F"F/ E/ F z/ "Dm"A/ | "Gm"d/ c/ B "A"A | "Bb"G"F"F |]
W:1. Sei Gott willkomm'n, Frau Nachtigall, allhier in grner Linden ;
W:
